X:90
T:Tom & Jerry. HSJJ.092
M:6/8
L:1/8
Q:3/8=120
S:HSJ Jackson,Wyresdale,Lancs.1823
R:.Jig
O:England
A:Lancashire
H:1823
Z:vmp.Chris Partington.
K:G
D|G2BG2B|G2G GAB|c2AB2G|A2AA2D|!
G2BG2B|Ggf edc|BdG AcF|A3G2:|!
d|^c2c cBc|d2fa2f|g2e^c2A|d2fA2d|!
^c2c (cB)c|d2fa2f|g2e^c2A|d3-” DC”d2|]

